X: 2
T: The Sailor's Wife
R: jig
M: 6/8
L: 1/8
K: Ddor
A, |:DEF E2 D | d2 e f2 g | agf edc | AcA GEC |
DEF E2 D | d2 e f2 g | afd efe | d3 d3 :|
|: fga fga | fga agf | efg efg | efg gfe |
fga agf | efg gfe | fdf e=ce | d3 d2 :|


Tune 3140	Setting 3140

